src/assets/img/providers-white/elysiumstudios.svg

<svg width="104" height="32" viewBox="0 0 104 32" fill="none" xmlns="http://www.w3.org/2000/svg">
<g clip-path="url(#clip0_4132_7306)">
<path fill-rule="evenodd" clip-rule="evenodd" d="M53.756 2.29243L56.0679 0.120445C56.0893 0.101779 56.1119 0.101779 56.1359 0.120445L56.2159 0.184445C56.2293 0.195111 56.2306 0.207111 56.22 0.220445C54.9773 1.8951 53.812 3.50443 52.724 5.04842C52.636 5.17375 52.5186 5.21908 52.372 5.18442C49.52 4.54042 47.752 7.12841 50.864 8.6524C51.0106 8.7244 51.0373 8.82706 50.944 8.9604L48.16 12.9924C47.9813 13.2537 47.9213 13.2284 47.98 12.9164C48.2751 11.3388 47.9386 11.0191 47.4001 10.5076C47.1358 10.2566 46.8228 9.95933 46.512 9.44439C45.7867 8.24173 45.6493 6.91774 46.1 5.47242C47.06 2.38843 50.62 1.79244 53.34 2.40843C53.4973 2.4431 53.636 2.40443 53.756 2.29243ZM87.4078 18.9043L84.5278 18.9003C84.4949 18.9003 84.4634 18.8873 84.4401 18.864C84.4169 18.8408 84.4038 18.8092 84.4038 18.7763L84.3758 1.91644C84.3748 1.88931 84.3827 1.86259 84.3984 1.8404C84.414 1.81821 84.4365 1.80176 84.4624 1.79359C84.4883 1.78541 84.5161 1.78596 84.5417 1.79515C84.5672 1.80433 84.5891 1.82165 84.6038 1.84444L92.7158 13.4204C92.7273 13.4361 92.7423 13.4489 92.7597 13.4577C92.7771 13.4665 92.7963 13.4711 92.8158 13.4711C92.8352 13.4711 92.8544 13.4665 92.8718 13.4577C92.8892 13.4489 92.9042 13.4361 92.9158 13.4204L101.228 1.82044C101.243 1.79916 101.265 1.78341 101.29 1.77547C101.316 1.76753 101.343 1.76782 101.368 1.77629C101.393 1.78477 101.414 1.80099 101.429 1.82259C101.444 1.8442 101.452 1.87007 101.452 1.89644L101.424 6.22441C101.423 6.25033 101.415 6.27551 101.4 6.29641L92.7758 18.4523C92.7642 18.4681 92.7492 18.4808 92.7318 18.4896C92.7144 18.4984 92.6952 18.503 92.6758 18.503C92.6563 18.503 92.6371 18.4984 92.6197 18.4896C92.6023 18.4808 92.5873 18.4681 92.5758 18.4523L87.7438 11.7284C87.7282 11.7071 87.7062 11.6914 87.6811 11.6834C87.6559 11.6755 87.6289 11.6758 87.6039 11.6842C87.5789 11.6927 87.5573 11.7089 87.5422 11.7305C87.5271 11.7521 87.5192 11.778 87.5198 11.8044L87.5318 18.7803C87.5318 18.8132 87.5187 18.8448 87.4955 18.868C87.4722 18.8913 87.4407 18.9043 87.4078 18.9043ZM36.1109 9.77515C36.0931 9.76702 36.0771 9.75516 36.064 9.7404L29.6881 2.39644C29.6187 2.31377 29.5294 2.27244 29.4201 2.27244L28.5201 2.25644C28.3734 2.25377 28.3348 2.31644 28.4041 2.44444C30.1481 5.62842 31.9294 8.86974 33.7481 12.1684C34.6155 13.7453 35.0826 15.5147 35.5413 17.2521L35.5414 17.2526L35.5416 17.2534C35.6518 17.6706 35.7614 18.0859 35.876 18.4964C36.0334 19.0643 36.184 19.063 36.328 18.4924C36.6507 17.2177 36.972 15.9764 37.292 14.7684C37.5427 13.8217 37.988 12.787 38.628 11.6644C40.4147 8.51774 42.1173 5.48042 43.736 2.55244C43.856 2.33111 43.7907 2.23244 43.54 2.25644C43.4354 2.26625 43.3231 2.26299 43.2093 2.2597C42.9055 2.25089 42.5917 2.2418 42.388 2.48044C40.2494 5.01909 38.2094 7.43908 36.268 9.7404C36.2559 9.75516 36.2406 9.76702 36.2233 9.77515C36.2059 9.78329 36.1869 9.7875 36.1675 9.7875C36.1481 9.7875 36.1288 9.78329 36.1109 9.77515ZM80.4478 12.9606C80.4398 16.3926 77.6758 18.7285 74.3719 19.0285C70.5279 19.3765 67.0519 16.8366 67.0399 12.8046C67.0319 9.56993 67.0292 6.10728 67.0319 2.41664C67.0319 2.3153 67.0839 2.26464 67.1879 2.26464L70.1279 2.26864C70.2399 2.26864 70.2959 2.32597 70.2959 2.44064C70.3119 5.69662 70.3079 9.04993 70.2839 12.5006C70.2559 16.8966 77.2318 17.0766 77.2478 12.4406C77.2558 9.18726 77.2545 5.84328 77.2438 2.40864C77.2438 2.32064 77.2878 2.27664 77.3758 2.27664H80.3078C80.4092 2.27664 80.4598 2.32597 80.4598 2.42464C80.4572 5.83795 80.4532 9.34993 80.4478 12.9606ZM1.90426 5.26473L4.89624 7.02472C4.91777 7.03764 4.94238 7.04454 4.9675 7.04468C4.99261 7.04483 5.0173 7.03821 5.03898 7.02553C5.06066 7.01285 5.07853 6.99458 5.09071 6.97262C5.1029 6.95066 5.10895 6.92582 5.10824 6.90072L5.09624 5.56873C5.09624 5.5316 5.11099 5.49599 5.13724 5.46973C5.1635 5.44348 5.19911 5.42873 5.23624 5.42873H12.9802C13.0173 5.42873 13.0529 5.41398 13.0792 5.38772C13.1054 5.36147 13.1202 5.32586 13.1202 5.28873L13.1242 2.42075C13.1242 2.38362 13.1094 2.34801 13.0832 2.32175C13.0569 2.2955 13.0213 2.28075 12.9842 2.28075L1.97226 2.27675C1.93513 2.27675 1.89952 2.2915 1.87326 2.31775C1.84701 2.34401 1.83226 2.37961 1.83226 2.41674L1.83626 5.14473C1.83627 5.1689 1.84254 5.19266 1.85445 5.21368C1.86637 5.23471 1.88353 5.2523 1.90426 5.26473ZM20.5802 15.7405L27.9961 15.7245C28.047 15.7245 28.0959 15.7447 28.1319 15.7807C28.1679 15.8167 28.1881 15.8655 28.1881 15.9165L28.2001 18.7125C28.2001 18.7634 28.1799 18.8122 28.1439 18.8482C28.1079 18.8842 28.059 18.9044 28.0081 18.9044L17.2962 18.9005C17.2452 18.9005 17.1964 18.8802 17.1604 18.8442C17.1244 18.8082 17.1042 18.7594 17.1042 18.7085L17.1242 2.46054C17.1242 2.43533 17.1291 2.41036 17.1388 2.38707C17.1484 2.36377 17.1626 2.34261 17.1804 2.32478C17.1982 2.30695 17.2194 2.29281 17.2427 2.28316C17.266 2.27351 17.291 2.26854 17.3162 2.26854L20.2042 2.28454C20.2551 2.28454 20.3039 2.30477 20.3399 2.34078C20.3759 2.37678 20.3962 2.42562 20.3962 2.47654L20.3882 15.5485C20.3882 15.5737 20.3931 15.5986 20.4028 15.6219C20.4124 15.6452 20.4266 15.6664 20.4444 15.6842C20.4622 15.7021 20.4834 15.7162 20.5067 15.7259C20.53 15.7355 20.5549 15.7405 20.5802 15.7405ZM59.9599 2.27245H62.9599C63.0372 2.27245 63.0999 2.33513 63.0999 2.41245V18.7644C63.0999 18.8417 63.0372 18.9044 62.9599 18.9044H59.9599C59.8826 18.9044 59.8199 18.8417 59.8199 18.7644V2.41245C59.8199 2.33513 59.8826 2.27245 59.9599 2.27245ZM2.12424 11.6923C2.45224 9.93769 2.06157 8.50703 0.952244 7.40037C0.584246 7.03237 0.622912 6.98437 1.06824 7.25637L6.39621 10.4924C6.41363 10.5026 6.42808 10.5172 6.43811 10.5347C6.44815 10.5523 6.45343 10.5721 6.45343 10.5924C6.45343 10.6126 6.44815 10.6324 6.43811 10.65C6.42808 10.6675 6.41363 10.6821 6.39621 10.6923L1.11624 13.9163C0.596246 14.2363 0.545579 14.1737 0.964244 13.7283C1.51624 13.1403 1.97624 12.4963 2.12424 11.6923ZM102.774 8.81299L102.774 8.81255L102.775 8.81124C102.954 8.47984 103.131 8.15243 103.292 7.82836C103.308 7.79636 103.3 7.76969 103.268 7.74836H103.264C103.229 7.72969 103.201 7.73636 103.18 7.76836C101.62 10.1123 100.006 12.4417 98.3397 14.7563C98.2435 14.8889 98.1917 15.0485 98.1917 15.2123V18.7963C98.1917 18.81 98.1945 18.8235 98.1999 18.8361C98.2054 18.8487 98.2133 18.8602 98.2233 18.8698C98.2334 18.8795 98.2453 18.8872 98.2584 18.8924C98.2715 18.8976 98.2855 18.9003 98.2997 18.9003L101.308 18.9043C101.341 18.9043 101.372 18.8917 101.395 18.8692C101.419 18.8466 101.432 18.8161 101.432 18.7843C101.432 16.8003 101.422 14.7963 101.404 12.7723C101.391 11.372 102.098 10.064 102.774 8.81299ZM54.128 10.1445C55.232 10.8591 55.8986 11.7125 56.128 12.7044C56.7546 15.4164 55.892 17.3471 53.54 18.4964C52.164 19.1684 50.4227 19.2551 48.316 18.7564C48.188 18.7244 48.076 18.7551 47.98 18.8484C47.2573 19.5497 46.5987 20.2857 46.004 21.0564C45.9853 21.0831 45.9613 21.0871 45.932 21.0684C45.892 21.0444 45.8827 21.0124 45.904 20.9724C46.7973 19.2817 47.688 17.6124 48.576 15.9644C48.6009 15.9195 48.6416 15.8855 48.6898 15.8692C48.738 15.8528 48.7902 15.8554 48.836 15.8764C49.644 16.2284 50.512 16.2898 51.44 16.0604C52.82 15.7204 53.552 14.2764 52.416 13.1724C52.1413 12.9058 51.8306 12.6924 51.484 12.5324C51.3186 12.4578 51.2866 12.3444 51.388 12.1924C52.3613 10.7525 53.3106 9.3018 54.236 7.84047C54.2706 7.78981 54.3133 7.77914 54.364 7.80847L54.368 7.81247C54.424 7.84447 54.4386 7.88981 54.412 7.94847C54.1613 8.50847 53.9893 9.06447 53.896 9.61646C53.8586 9.84313 53.936 10.0191 54.128 10.1445ZM13.0082 15.7287L5.24023 15.7407C5.2031 15.7407 5.16749 15.7259 5.14124 15.6997C5.11498 15.6734 5.10023 15.6378 5.10023 15.6007L5.10823 14.2687C5.10895 14.2436 5.10289 14.2188 5.09071 14.1968C5.07852 14.1748 5.06065 14.1566 5.03897 14.1439C5.0173 14.1312 4.99261 14.1246 4.96749 14.1247C4.94238 14.1249 4.91777 14.1318 4.89624 14.1447L1.90825 15.9087C1.88752 15.9211 1.87037 15.9387 1.85845 15.9597C1.84653 15.9808 1.84026 16.0045 1.84025 16.0287L1.82825 18.7647C1.82825 18.8018 1.843 18.8374 1.86926 18.8637C1.89551 18.8899 1.93112 18.9047 1.96825 18.9047L12.9962 18.9007C13.0333 18.9007 13.0689 18.8859 13.0952 18.8597C13.1214 18.8334 13.1362 18.7978 13.1362 18.7607L13.1482 15.8687C13.1482 15.8316 13.1334 15.7959 13.1072 15.7697C13.0809 15.7434 13.0453 15.7287 13.0082 15.7287ZM38.424 32.0002H38.064C38.3243 30.7328 37.4822 30.4135 36.6333 30.0916L36.6332 30.0916C36.4775 30.0325 36.3215 29.9733 36.1721 29.9082C35.0881 29.4402 34.5721 28.2323 35.7401 27.4723C36.4494 27.0083 37.2614 27.0016 38.176 27.4523C38.2374 27.4816 38.2587 27.5296 38.24 27.5963L38.192 27.7843C38.1627 27.8936 38.0974 27.9216 37.996 27.8683C37.1761 27.4243 36.0961 27.2643 35.6001 28.2523C35.518 28.4157 35.5014 28.6042 35.5534 28.779C35.6055 28.9538 35.7224 29.1016 35.8801 29.1923C36.0987 29.3195 36.3614 29.4398 36.6355 29.5653C37.7055 30.0551 38.9495 30.6246 38.424 32.0002ZM63.2879 32.0006H63.7639C66.3479 28.6926 61.0159 24.8406 58.7479 28.7486C58.1266 29.8179 58.2226 30.9019 59.0359 32.0006H59.5039C58.4026 30.1126 58.7346 28.6833 60.4999 27.7126C61.1759 27.3406 62.1919 27.5526 62.8239 28.0246C64.1546 29.0273 64.3092 30.3526 63.2879 32.0006ZM69.0639 32.0003H68.6399C68.9825 30.7507 67.9918 30.342 67.0874 29.969C66.883 29.8847 66.6831 29.8023 66.5039 29.7123C65.2679 29.0883 65.5999 27.6323 66.7599 27.2483C67.3519 27.051 68.0119 27.1083 68.7399 27.4203C68.8706 27.4763 68.9252 27.5737 68.9039 27.7123C68.8959 27.755 68.8732 27.787 68.8359 27.8083C68.7772 27.8403 68.7159 27.8456 68.6519 27.8243C68.0252 27.6083 67.6079 27.4963 67.3999 27.4883C66.8879 27.4683 66.0359 28.0763 66.2239 28.7003C66.4066 29.3019 67.0593 29.552 67.6738 29.7875C68.0686 29.9387 68.4475 30.0839 68.6759 30.3123C69.1826 30.8163 69.3119 31.379 69.0639 32.0003ZM41.148 32.0006H41.568L41.596 27.7886C41.596 27.6446 41.668 27.5753 41.812 27.5806L43.136 27.6326C43.2533 27.6379 43.304 27.5819 43.288 27.4646L43.268 27.3166C43.264 27.278 43.2454 27.2423 43.2159 27.2164C43.1863 27.1905 43.1478 27.1763 43.108 27.1766L39.612 27.1806C39.5822 27.1804 39.5533 27.1909 39.5312 27.2101C39.509 27.2293 39.495 27.2559 39.492 27.2846L39.468 27.4886C39.46 27.5766 39.5 27.6193 39.588 27.6166L40.888 27.5806C41.0374 27.5779 41.1134 27.6513 41.116 27.8006L41.148 32.0006ZM45.168 32.0003H44.744L44.648 27.2923C44.6473 27.2773 44.6499 27.2623 44.6558 27.2483C44.6616 27.2344 44.6706 27.2218 44.682 27.2115C44.6934 27.2013 44.707 27.1935 44.7219 27.1888C44.7367 27.1841 44.7525 27.1826 44.768 27.1843L44.884 27.2043C44.9453 27.2129 45.0015 27.2434 45.0426 27.2903C45.0836 27.3372 45.1068 27.3975 45.108 27.4603L45.168 32.0003ZM48.148 32.0005H48.58L48.668 27.2965C48.668 27.2165 48.6293 27.1792 48.552 27.1845L48.436 27.1965C48.2893 27.2072 48.2147 27.2859 48.212 27.4325L48.148 32.0005ZM54.3759 32.0004H54.04C55.1866 29.5418 54.4093 28.0578 51.708 27.5485C51.196 27.4525 50.9373 27.6631 50.932 28.1805L50.9 32.0004H50.516L50.528 27.4285C50.528 27.2951 50.5933 27.2205 50.724 27.2045C53.168 26.9005 55.4279 27.9405 55.0439 30.8004C54.9799 31.2858 54.7573 31.6858 54.3759 32.0004ZM56.536 32.0005H56.944L56.9799 27.3326C56.9826 27.2606 56.948 27.2192 56.876 27.2085L56.72 27.1926C56.5946 27.1766 56.532 27.2326 56.532 27.3606L56.536 32.0005Z" fill="white"/>
</g>
<defs>
<clipPath id="clip0_4132_7306">
<rect width="103.199" height="32" fill="white" transform="translate(0.400269 0.000976562)"/>
</clipPath>
</defs>
</svg>

<svg width="104" height="32" fill="none" xmlns="http://www.w3.org/2000/svg"><g clip-path="url(#a)"><path fill-rule="evenodd" clip-rule="evenodd" d="M53.756 2.292 56.068.12c.021-.018.044-.018.068 0l.08.064c.013.011.015.023.004.036a243.234 243.234 0 0 0-3.496 4.828.31.31 0 0 1-.352.136c-2.852-.644-4.62 1.944-1.508 3.468.147.072.173.175.08.308l-2.784 4.032c-.179.262-.239.236-.18-.076.295-1.577-.041-1.897-.58-2.408-.264-.251-.577-.549-.888-1.064-.725-1.202-.863-2.526-.412-3.972.96-3.084 4.52-3.68 7.24-3.064a.44.44 0 0 0 .416-.116Zm33.652 16.612-2.88-.004a.124.124 0 0 1-.124-.124l-.028-16.86a.124.124 0 0 1 .228-.072l8.112 11.576a.124.124 0 0 0 .2 0l8.312-11.6a.12.12 0 0 1 .062-.045.122.122 0 0 1 .139.047.13.13 0 0 1 .023.074l-.028 4.328a.132.132 0 0 1-.024.072l-8.624 12.156a.124.124 0 0 1-.2 0l-4.832-6.724a.125.125 0 0 0-.202.002.124.124 0 0 0-.022.074l.012 6.976a.124.124 0 0 1-.124.124ZM36.11 9.775a.141.141 0 0 1-.047-.035l-6.376-7.344a.334.334 0 0 0-.268-.124l-.9-.016c-.147-.002-.185.06-.116.188 1.744 3.184 3.525 6.426 5.344 9.724.867 1.577 1.335 3.347 1.793 5.084v.001c.11.418.22.833.335 1.243.157.568.308.567.452-.004.323-1.274.644-2.516.964-3.724.25-.946.696-1.981 1.336-3.104a917.882 917.882 0 0 0 5.108-9.112c.12-.22.055-.32-.196-.296-.105.01-.217.007-.33.004-.304-.01-.618-.018-.822.22-2.139 2.54-4.179 4.96-6.12 7.26a.128.128 0 0 1-.1.047.137.137 0 0 1-.057-.012Zm44.337 3.186c-.008 3.432-2.772 5.768-6.076 6.068-3.844.348-7.32-2.192-7.332-6.224-.008-3.235-.01-6.698-.008-10.388 0-.102.052-.152.156-.152l2.94.004c.112 0 .168.057.168.172.016 3.256.012 6.609-.012 10.06-.028 4.396 6.948 4.576 6.964-.06.008-3.254.006-6.598-.004-10.032 0-.088.044-.132.132-.132h2.932c.101 0 .152.049.152.148l-.012 10.536ZM1.904 5.265l2.992 1.76a.14.14 0 0 0 .212-.124l-.012-1.332a.14.14 0 0 1 .14-.14h7.744a.14.14 0 0 0 .14-.14l.004-2.868a.14.14 0 0 0-.14-.14L1.972 2.277a.14.14 0 0 0-.14.14l.004 2.728a.14.14 0 0 0 .068.12ZM20.58 15.74l7.416-.016a.192.192 0 0 1 .192.191l.012 2.796a.192.192 0 0 1-.192.192l-10.712-.003a.192.192 0 0 1-.192-.192l.02-16.248a.191.191 0 0 1 .192-.192l2.888.016a.192.192 0 0 1 .192.192l-.008 13.072a.19.19 0 0 0 .119.177c.023.01.048.014.073.014ZM59.96 2.272h3a.14.14 0 0 1 .14.14v16.352a.14.14 0 0 1-.14.14h-3a.14.14 0 0 1-.14-.14V2.412a.14.14 0 0 1 .14-.14Zm-57.836 9.42C2.452 9.938 2.062 8.507.952 7.4c-.368-.368-.33-.416.116-.144l5.328 3.236a.116.116 0 0 1 0 .2l-5.28 3.224c-.52.32-.57.258-.152-.188.552-.588 1.012-1.232 1.16-2.036Zm100.65-2.879.001-.002c.179-.331.356-.659.517-.983.016-.032.008-.058-.024-.08h-.004c-.035-.018-.063-.012-.084.02a231.417 231.417 0 0 1-4.84 6.988.777.777 0 0 0-.148.456v3.584a.1.1 0 0 0 .031.074.108.108 0 0 0 .077.03l3.008.004a.124.124 0 0 0 .124-.12c0-1.984-.01-3.988-.028-6.012-.013-1.4.694-2.708 1.37-3.959Zm-48.646 1.332c1.104.714 1.77 1.568 2 2.56.627 2.711-.236 4.642-2.588 5.791-1.376.672-3.117.76-5.224.26a.337.337 0 0 0-.336.092 20.684 20.684 0 0 0-1.976 2.208c-.019.027-.043.031-.072.012-.04-.024-.05-.056-.028-.096a696.28 696.28 0 0 1 2.672-5.008.206.206 0 0 1 .114-.095.198.198 0 0 1 .146.007c.808.352 1.676.414 2.604.184 1.38-.34 2.112-1.784.976-2.888a3.338 3.338 0 0 0-.932-.64c-.165-.074-.197-.188-.096-.34.973-1.44 1.923-2.89 2.848-4.352.035-.05.077-.06.128-.032l.004.004c.056.032.07.078.044.136a6.89 6.89 0 0 0-.516 1.668.49.49 0 0 0 .232.529Zm-41.12 5.584-7.768.012a.14.14 0 0 1-.14-.14l.008-1.332a.14.14 0 0 0-.212-.124l-2.988 1.764a.14.14 0 0 0-.068.12l-.012 2.736a.14.14 0 0 0 .14.14l11.028-.004a.14.14 0 0 0 .14-.14l.012-2.892a.14.14 0 0 0-.14-.14ZM38.424 32h-.36c.26-1.267-.582-1.587-1.43-1.908-.157-.06-.313-.119-.462-.184-1.084-.468-1.6-1.676-.432-2.436.71-.464 1.521-.47 2.436-.02.061.03.083.078.064.144l-.048.188c-.03.11-.095.138-.196.084-.82-.444-1.9-.604-2.396.384a.718.718 0 0 0 .28.94c.219.128.481.248.755.373 1.07.49 2.315 1.06 1.789 2.435Zm24.864 0h.476c2.584-3.307-2.748-7.16-5.016-3.251-.621 1.069-.525 2.153.288 3.252h.468c-1.101-1.888-.77-3.318.996-4.288.676-.372 1.692-.16 2.324.312 1.33 1.002 1.485 2.328.464 3.976Zm5.776 0h-.424c.343-1.25-.648-1.658-1.553-2.031-.204-.084-.404-.167-.583-.257-1.236-.624-.904-2.08.256-2.464.592-.197 1.252-.14 1.98.172.13.056.185.154.164.292a.134.134 0 0 1-.068.096.222.222 0 0 1-.184.016c-.627-.216-1.044-.328-1.252-.336-.512-.02-1.364.588-1.176 1.212.183.602.835.852 1.45 1.088.395.15.773.296 1.002.524.507.504.636 1.067.388 1.688Zm-27.916 0h.42l.028-4.211c0-.144.072-.214.216-.208l1.324.052c.117.005.168-.051.152-.168l-.02-.148a.155.155 0 0 0-.052-.1.162.162 0 0 0-.108-.04l-3.496.004c-.03 0-.059.01-.08.03a.114.114 0 0 0-.04.074l-.024.204c-.008.088.032.13.12.128l1.3-.036c.15-.003.225.07.228.22l.032 4.2Zm4.02 0h-.424l-.096-4.708a.101.101 0 0 1 .034-.08.11.11 0 0 1 .086-.028l.116.02c.061.009.117.04.159.086a.266.266 0 0 1 .065.17l.06 4.54Zm2.98 0h.432l.088-4.703c0-.08-.039-.118-.116-.113l-.116.012c-.147.011-.221.09-.224.236l-.064 4.569Zm6.228 0h-.336c1.147-2.458.37-3.942-2.332-4.451-.512-.096-.77.114-.776.631L50.9 32h-.384l.012-4.572c0-.133.065-.207.196-.224 2.444-.303 4.704.736 4.32 3.596a1.812 1.812 0 0 1-.668 1.2Zm2.16 0h.408l.036-4.667c.003-.072-.032-.114-.104-.124l-.156-.016c-.125-.016-.188.04-.188.168l.004 4.64Z" fill="#fff"/></g><defs><clipPath id="a"><path fill="#fff" transform="translate(.4 .001)" d="M0 0h103.199v32H0z"/></clipPath></defs></svg>
